!!!OTL: 1827. Wenn sich das Kind gestossen hat oder gefallen ist.
!!!ODT: 1858
!!!ARE: Europa, Mitteleuropa, Deutschland, Erfurt, Stotternheim
!!!SCT: E1827
!!!TXL: @@DE
!!!YEM: Copyright 1995, estate of Helmut Schaffrath.
**kern	**text
*ICvox	*
*M2/4	*
*k[f#]	*
*G:	*
=1	=1
!LO:TX:a:t=Aus Stotternheim 1858.	!
{8dd	Hei-
8cc	-le,
8b	hei-
8a	-le,
=2	=2
4g	hei-
8d}	-le!
{8d	Das
=3	=3
8g	Kätʒ-
8g	-chen
8a	lief
8a	ʒum
=4	=4
8b	Ber-
8b	-ge
8a}	'nan,
{8a	und
=5	=5
8b	als
8b	es
8a	wie-
8a	-der
=6	=6
8b	run-
8b	-ter
8a}	kam,
{8cc	war
=7	=7
8b	Al-
8g	-les
8a	wieder
8a	ge-
=8	=8
4g	-heilt.
4r}	.
==	==
!!!AGN: Kinder - Lied, Trost
!!!ONB: ESAC (Essen Associative Code) Database: ERK3
!!!AMT: simple duple
!!!AIN: vox
!!!EED: Helmut Schaffrath
!!!EEV: 1.0
!!!GTL: Einige Kinderlieder. b) Koselieder in der Kinderstube.
!!!URL-scan: https://rosdok.uni-rostock.de/mcrviewer/recordIdentifier/rosdok_ppn745177999/iview2/phys_0591.iview2?x=111.44911497100793&y=992.4401873331517&scale=0.7014306698522895&rotation=0&layout=singlePageLayout
!!!ENC: Anna Maria Matuszewska
!!!EEV: 2025/09/01
*-	*-
